static/logos/togglPlan-wordmark-color.svg

<svg width="100" height="22" viewBox="0 0 100 22" fill="none" xmlns="http://www.w3.org/2000/svg">
<g clip-path="url(#clip0_1_690)">
<path d="M29.8249 7.4756C30.0537 7.24805 30.3866 7.14464 30.6987 7.14464C31.0107 7.14464 31.3435 7.24805 31.5724 7.4756C31.8012 7.70308 31.9052 8.03398 31.9052 8.34422C31.9052 8.67518 31.8012 8.98542 31.5724 9.21296C31.3435 9.44045 31.0107 9.54386 30.6987 9.54386C30.3866 9.54386 30.0537 9.44045 29.8249 9.21296C29.5961 8.98542 29.4921 8.65446 29.4921 8.34422C29.4921 8.03398 29.5961 7.70308 29.8249 7.4756ZM36.8145 18.2098C36.7728 17.2791 36.5024 16.2864 35.7952 15.6245C35.0047 14.9007 33.8606 14.549 32.7997 14.549H28.0568C27.5783 14.549 27.1831 14.1974 27.1831 13.7631C27.1831 13.3908 27.4327 13.1012 27.7655 12.9979C27.7655 12.9979 27.8488 12.9772 27.9319 12.9565C28.7849 13.3701 29.7418 13.5356 30.6987 13.5356C32.1548 13.5356 33.6317 13.1012 34.7134 12.1085C35.7536 11.1364 36.2528 9.77135 36.2528 8.3856C36.2528 6.99991 35.7536 5.63485 34.7134 4.66276C34.4014 4.37318 34.0686 4.14567 33.6942 3.93885C34.6927 4.16636 35.7327 3.87681 36.4609 2.65653L34.443 1.20874L32.758 3.54588C32.0924 3.33906 31.4059 3.23564 30.6987 3.23564C29.2425 3.23564 27.7655 3.66997 26.6839 4.66276C25.6437 5.63485 25.1445 6.99991 25.1445 8.3856C25.1445 9.77135 25.6229 11.1364 26.6839 12.1085C26.767 12.1912 26.871 12.2739 26.9751 12.3567C26.871 12.4187 26.7878 12.4601 26.7878 12.4601C26.3926 12.6669 25.9349 13.0185 25.4565 13.5149C24.7909 14.2181 24.1252 15.2729 24.1252 16.6587C24.1252 16.6587 24.042 19.637 27.4743 19.637H29.9706C30.553 19.637 31.1355 20.0093 31.1355 20.5676C31.1355 20.7745 31.0731 20.9606 30.9691 21.1261H35.7536C36.44 20.3609 36.8352 19.2233 36.8145 18.2098Z" fill="#A876F5"/>
<path d="M41.946 7.4759C42.1749 7.24835 42.5077 7.145 42.8197 7.145C43.1317 7.145 43.4646 7.24835 43.6934 7.4759C43.9222 7.70338 44.0262 8.03428 44.0262 8.34452C44.0262 8.67548 43.9222 8.98572 43.6934 9.21326C43.4646 9.44075 43.1317 9.54416 42.8197 9.54416C42.5077 9.54416 42.1749 9.44075 41.946 9.21326C41.7172 8.98572 41.6132 8.65482 41.6132 8.34452C41.5924 8.03428 41.7172 7.70338 41.946 7.4759ZM50.3919 18.2101C50.3503 17.2794 50.0795 16.2867 49.3724 15.6248C48.5817 14.901 47.4379 14.5493 46.3768 14.5493L40.8643 14.508C40.5107 14.508 40.2611 14.3012 40.2611 13.9702C40.2611 13.7013 40.3859 13.3084 40.7187 13.2463C41.3636 13.4532 42.0708 13.5566 42.7573 13.5566C44.2135 13.5566 45.6906 13.1222 46.7719 12.1295C47.8122 11.1574 48.3113 9.79231 48.3113 8.40662C48.3113 7.02087 47.8122 5.65583 46.7719 4.68375C46.46 4.39418 46.1273 4.16667 45.7529 3.95984C46.7511 4.18735 47.7914 3.8978 48.5193 2.67753L46.5016 1.22974L44.8167 3.56687C44.1511 3.36005 43.4646 3.25663 42.7573 3.25663C41.3011 3.25663 39.8242 3.69097 38.7425 4.68375C37.7024 5.65583 37.2031 7.02087 37.2031 8.40662C37.2031 9.79231 37.7024 11.1574 38.7425 12.1295C39.0546 12.419 39.3874 12.6672 39.7618 12.8534C39.5122 13.0395 39.2626 13.267 39.0129 13.5359C38.3473 14.2391 37.6816 15.2939 37.6816 16.6797C37.6816 16.6797 37.5984 19.6579 41.0307 19.6579H43.527C44.1095 19.6579 44.6919 20.0302 44.6919 20.5887C44.6919 20.7955 44.6295 20.9816 44.5255 21.1471H49.31C50.0379 20.3612 50.4335 19.2236 50.3919 18.2101Z" fill="#A876F5"/>
<path d="M56.1777 16.6794V12.2119C55.1587 12.336 54.784 11.6121 54.784 10.9089V0.0298462H49.6875V11.7155C49.6875 13.1633 49.8955 14.3836 50.4366 15.1488C51.2477 16.3071 52.3503 17.0723 54.5136 17.0723C54.9295 17.0516 55.5955 16.9689 56.1777 16.6794Z" fill="#A876F5"/>
<path d="M18.5716 11.2609C18.2595 11.5711 17.8434 11.6952 17.4274 11.6952C17.0114 11.6952 16.5953 11.5711 16.2833 11.2609C15.9921 10.9713 15.8465 10.5577 15.8465 10.1234C15.8465 9.68905 15.9921 9.29605 16.2833 8.98581C16.5953 8.67557 17.0114 8.5515 17.4274 8.5515C17.8434 8.5515 18.2595 8.67557 18.5716 8.98581C18.8627 9.27539 19.0083 9.68905 19.0083 10.1234C19.0083 10.5577 18.8627 10.9507 18.5716 11.2609ZM22.3783 5.2009C21.0678 3.85653 19.258 3.2981 17.469 3.2981C15.68 3.2981 13.8703 3.87721 12.5597 5.2009C11.27 6.5039 10.6875 8.32396 10.6875 10.1855C10.6875 12.0468 11.2908 13.8669 12.5597 15.1699C13.8703 16.5143 15.68 17.0727 17.469 17.0727C19.258 17.0727 21.0678 16.4936 22.3783 15.1699C23.668 13.8669 24.2505 12.0468 24.2505 10.1855C24.2505 8.32396 23.6473 6.5039 22.3783 5.2009Z" fill="#A876F5"/>
<path d="M68.8252 15.0871C69.345 14.8596 69.7815 14.5287 70.1564 14.1151C70.5103 13.7014 70.8013 13.2257 70.9881 12.6673C71.1755 12.1295 71.2797 11.5297 71.2797 10.8679C71.2797 10.2267 71.1755 9.64759 70.9881 9.08915C70.8013 8.53071 70.5103 8.05502 70.1564 7.64136C69.8025 7.22771 69.345 6.91747 68.8252 6.66933C68.3049 6.44178 67.7222 6.31771 67.036 6.31771C66.3911 6.31771 65.7881 6.42106 65.2887 6.64861C64.7683 6.87609 64.3318 7.18633 63.9576 7.57933C63.6037 7.97232 63.3121 8.44801 63.1043 9.00639C62.8965 9.5649 62.8133 10.1853 62.8133 10.8472C62.8133 11.5297 62.9169 12.1502 63.1043 12.688C63.3121 13.2463 63.5827 13.7221 63.9576 14.1151C64.3109 14.508 64.7683 14.8183 65.2887 15.0457C65.8085 15.2733 66.3911 15.3766 67.036 15.3766C67.7222 15.4181 68.3049 15.3146 68.8252 15.0871ZM61.5438 5.3663H62.8965V7.78615C63.0624 7.45526 63.2707 7.12436 63.5204 6.79334C63.7701 6.46244 64.0821 6.17292 64.4564 5.92471C64.8097 5.67654 65.2264 5.46968 65.7049 5.3249C66.1624 5.18016 66.7031 5.09741 67.2648 5.09741C68.0761 5.09741 68.8252 5.24219 69.4905 5.53176C70.1564 5.82128 70.718 6.23496 71.1965 6.75202C71.654 7.26909 72.0288 7.88957 72.2779 8.5928C72.5276 9.29598 72.6522 10.0612 72.6522 10.8886C72.6522 11.7159 72.5276 12.4811 72.2779 13.1843C72.0288 13.8875 71.6749 14.508 71.1965 15.0251C70.739 15.5421 70.1564 15.9558 69.4905 16.2454C68.8252 16.5349 68.0761 16.6797 67.2648 16.6797C66.6821 16.6797 66.1624 16.5969 65.7049 16.4521C65.2474 16.3074 64.8306 16.1006 64.4773 15.8524C64.1234 15.6042 63.8115 15.3146 63.5414 14.9837C63.2707 14.6528 63.042 14.3218 62.8755 13.9909V20.8162H61.5234V5.3663H61.5438Z" fill="#A876F5"/>
<path d="M76.4012 0.940308H75.0078V16.4316H76.4012V0.940308Z" fill="#A876F5"/>
<path d="M82.3459 11.2194C81.4932 11.3022 80.8896 11.5504 80.5363 11.9433C80.1824 12.3363 79.9956 12.7913 79.9956 13.3084C79.9956 13.9496 80.2034 14.446 80.6195 14.8182C81.0351 15.1905 81.6596 15.3766 82.4704 15.3766C83.095 15.3766 83.6567 15.2733 84.1351 15.0664C84.6135 14.8596 85.0297 14.57 85.362 14.2184C85.695 13.8668 85.9447 13.4739 86.1111 13.0395C86.2776 12.6052 86.3608 12.1502 86.3608 11.6952V10.7851L82.3459 11.2194ZM79.4543 6.71065C79.662 6.37975 79.9537 6.11083 80.3075 5.86268C80.6608 5.61447 81.098 5.42833 81.5974 5.30423C82.0962 5.18016 82.6998 5.09741 83.407 5.09741C84.8842 5.09741 85.986 5.42833 86.6938 6.11083C87.401 6.79334 87.7543 7.80687 87.7543 9.1719V16.4315H86.4028V14.053C86.0692 14.9009 85.5285 15.5421 84.8213 15.9765C84.0932 16.4108 83.2824 16.6383 82.3459 16.6383C81.7429 16.6383 81.2016 16.5556 80.7231 16.3901C80.2656 16.2247 79.8704 15.9971 79.5585 15.6869C79.2465 15.3974 79.0177 15.0457 78.8513 14.6321C78.6848 14.2184 78.6016 13.7841 78.6016 13.3084C78.6016 12.2742 78.9345 11.4883 79.6207 10.9506C80.2866 10.4129 81.1393 10.0819 82.159 9.97849L85.8614 9.62693C86.2357 9.58556 86.4231 9.42011 86.4231 9.1719V8.77891C86.4231 8.03436 86.1944 7.43454 85.7369 7.00023C85.2794 6.56586 84.5297 6.33837 83.4902 6.33837C81.5974 6.33837 80.5153 7.0416 80.2243 8.42735L79.0177 7.78615C79.101 7.3725 79.2465 7.02089 79.4543 6.71065Z" fill="#A876F5"/>
<path d="M92.8713 5.842C93.5575 5.34562 94.3892 5.09741 95.388 5.09741C96.8024 5.09741 97.8635 5.55244 98.5497 6.44178C99.2359 7.33112 99.5898 8.51005 99.5898 9.97849V16.4315H98.1964V9.87508C98.1964 8.77891 97.9257 7.91023 97.385 7.28981C96.8443 6.66933 96.0952 6.35909 95.1174 6.35909C94.4102 6.35909 93.8072 6.48316 93.3287 6.75202C92.8503 7.02089 92.4545 7.3725 92.1635 7.82753C91.8725 8.28256 91.6647 8.82029 91.5395 9.39939C91.415 9.99921 91.3527 10.6197 91.3527 11.2815V16.3902H90V5.3663H91.3108V7.82753C91.6647 7.00023 92.1844 6.33837 92.8713 5.842Z" fill="#A876F5"/>
<path d="M8.81254 12.2326C7.95967 12.2326 7.60601 11.9637 7.29398 11.5707C7.08596 11.3019 6.98194 10.9295 6.98194 10.4332V8.13745H9.83188V4.00091H7.00278V0.0298462H3.3624V1.51899C3.3624 3.1736 2.09348 4.4973 0.533323 4.4973C0.408511 4.4973 0.304501 4.4973 0.179688 4.47662V8.13745H2.09348V11.8189C2.09348 13.2667 2.36391 14.3836 2.88396 15.1488C3.69524 16.3071 4.58974 17.0723 6.79476 17.0723C8.06368 17.0723 9.14542 16.7827 9.83188 16.3898V12.0671C9.58224 12.1706 9.22859 12.2326 8.81254 12.2326Z" fill="#A876F5"/>
</g>
<defs>
<clipPath id="clip0_1_690">
<rect width="100" height="21.5569" fill="white"/>
</clipPath>
</defs>
</svg>

<svg xmlns="http://www.w3.org/2000/svg" width="290.909" height="64" fill="none" viewBox="0 0 100 22"><g fill="#A876F5" clip-path="url(#a)"><path d="M29.825 7.476c.229-.228.562-.331.874-.331.312 0 .644.103.873.33.23.228.333.559.333.87 0 .33-.104.64-.333.868-.229.227-.561.33-.873.33-.312 0-.645-.103-.874-.33-.229-.228-.333-.559-.333-.869 0-.31.104-.64.333-.868Zm6.99 10.734c-.042-.93-.313-1.924-1.02-2.586-.79-.723-1.934-1.075-2.995-1.075h-4.743c-.479 0-.874-.352-.874-.786a.8.8 0 0 1 .582-.765l.167-.041c.853.413 1.81.579 2.767.579 1.456 0 2.933-.435 4.014-1.428 1.04-.972 1.54-2.337 1.54-3.722 0-1.386-.5-2.751-1.54-3.723a5.047 5.047 0 0 0-1.019-.724c.999.227 2.039-.062 2.767-1.282l-2.018-1.448-1.685 2.337a6.9 6.9 0 0 0-2.06-.31c-1.456 0-2.933.434-4.014 1.427-1.04.972-1.54 2.337-1.54 3.723 0 1.385.479 2.75 1.54 3.723.083.082.187.165.291.248a3.154 3.154 0 0 1-.187.103c-.395.207-.853.558-1.332 1.055-.665.703-1.33 1.758-1.33 3.144 0 0-.084 2.978 3.348 2.978h2.497c.582 0 1.165.372 1.165.93 0 .207-.063.394-.167.56h4.785c.686-.766 1.081-1.904 1.06-2.917ZM41.946 7.476c.229-.228.562-.331.874-.331.312 0 .645.103.873.33.23.228.333.56.333.87 0 .33-.104.64-.333.868-.228.228-.561.331-.873.331-.312 0-.645-.103-.874-.33-.229-.228-.333-.56-.333-.87-.02-.31.104-.64.333-.868Zm8.446 10.734c-.042-.93-.313-1.923-1.02-2.585-.79-.724-1.934-1.076-2.995-1.076l-5.513-.041c-.353 0-.603-.207-.603-.538 0-.269.125-.662.458-.724.645.207 1.352.31 2.038.31 1.457 0 2.934-.434 4.015-1.426 1.04-.973 1.54-2.338 1.54-3.723 0-1.386-.5-2.751-1.54-3.723a5.044 5.044 0 0 0-1.02-.724c1 .227 2.04-.062 2.767-1.282L46.502 1.23l-1.685 2.337a6.9 6.9 0 0 0-2.06-.31c-1.456 0-2.933.434-4.014 1.427-1.04.972-1.54 2.337-1.54 3.723 0 1.385.5 2.75 1.54 3.723.312.289.644.537 1.019.723a5.6 5.6 0 0 0-.75.683c-.665.703-1.33 1.758-1.33 3.144 0 0-.084 2.978 3.349 2.978h2.496c.582 0 1.165.372 1.165.93 0 .207-.063.394-.166.56h4.784a4.228 4.228 0 0 0 1.082-2.938Z"/><path d="M56.178 16.68v-4.468c-1.02.124-1.394-.6-1.394-1.303V.029h-5.096v11.687c0 1.447.207 2.668.749 3.433.81 1.158 1.913 1.923 4.077 1.923.415-.02 1.081-.103 1.664-.393ZM18.572 11.26c-.313.311-.729.435-1.145.435-.416 0-.832-.124-1.144-.434-.29-.29-.437-.703-.437-1.138 0-.434.146-.827.437-1.137.312-.31.728-.434 1.144-.434.416 0 .832.124 1.145.434.29.29.436.703.436 1.137 0 .435-.145.828-.436 1.138Zm3.806-6.06c-1.31-1.343-3.12-1.902-4.909-1.902-1.789 0-3.599.58-4.91 1.903-1.289 1.303-1.871 3.123-1.871 4.984 0 1.862.603 3.682 1.872 4.985 1.31 1.344 3.12 1.903 4.909 1.903 1.789 0 3.599-.58 4.91-1.903 1.289-1.303 1.871-3.123 1.871-4.985 0-1.861-.603-3.681-1.872-4.984ZM68.825 15.087c.52-.227.956-.558 1.331-.972.354-.414.645-.89.832-1.448a5.438 5.438 0 0 0 .292-1.8c0-.64-.105-1.22-.292-1.778a4.321 4.321 0 0 0-.832-1.448c-.354-.413-.811-.724-1.33-.972-.521-.227-1.104-.351-1.79-.351-.645 0-1.248.103-1.747.33-.52.228-.957.538-1.331.931a4.418 4.418 0 0 0-.854 1.427c-.207.559-.29 1.18-.29 1.841 0 .683.103 1.303.29 1.841.208.558.479 1.034.854 1.427.353.393.81.703 1.33.93.52.228 1.103.332 1.748.332.686.041 1.269-.062 1.79-.29Zm-7.281-9.72h1.353v2.42c.165-.332.374-.663.623-.994.25-.33.562-.62.936-.868a4.36 4.36 0 0 1 1.249-.6 5.256 5.256 0 0 1 1.56-.228c.811 0 1.56.145 2.225.435.666.29 1.228.703 1.707 1.22a5.595 5.595 0 0 1 1.08 1.84c.25.704.375 1.47.375 2.297 0 .827-.124 1.592-.374 2.295-.25.704-.603 1.324-1.082 1.841-.457.517-1.04.93-1.706 1.22-.665.29-1.414.435-2.225.435a5.152 5.152 0 0 1-1.56-.228 4.508 4.508 0 0 1-2.164-1.468c-.27-.331-.499-.662-.665-.993v6.825h-1.353V5.366h.02ZM76.401.94h-1.393v15.492H76.4V.94ZM82.346 11.22c-.853.082-1.456.33-1.81.723-.354.393-.54.848-.54 1.365 0 .642.207 1.138.624 1.51.415.373 1.04.559 1.85.559.625 0 1.187-.104 1.665-.31a3.704 3.704 0 0 0 1.227-.849 3.55 3.55 0 0 0 .75-1.178c.166-.435.249-.89.249-1.345v-.91l-4.015.434Zm-2.892-4.51c.208-.33.5-.6.854-.847.353-.249.79-.435 1.29-.559a7.506 7.506 0 0 1 1.809-.207c1.477 0 2.579.331 3.287 1.014.707.682 1.06 1.696 1.06 3.06v7.26h-1.351v-2.378c-.334.848-.875 1.49-1.582 1.923-.728.435-1.539.662-2.475.662a4.95 4.95 0 0 1-1.623-.248c-.457-.165-.853-.393-1.165-.703a2.864 2.864 0 0 1-.707-1.055 3.486 3.486 0 0 1-.25-1.324c0-1.034.334-1.82 1.02-2.357.666-.538 1.518-.87 2.538-.973l3.702-.351c.375-.041.562-.207.562-.455v-.393c0-.745-.229-1.344-.686-1.779-.458-.434-1.207-.662-2.247-.662-1.893 0-2.975.704-3.266 2.09l-1.206-.642c.083-.413.228-.765.436-1.075ZM92.871 5.842c.687-.496 1.518-.745 2.517-.745 1.414 0 2.475.455 3.162 1.345.686.89 1.04 2.068 1.04 3.536v6.454h-1.394V9.874c0-1.096-.27-1.965-.811-2.585-.54-.62-1.29-.93-2.268-.93-.707 0-1.31.123-1.788.392-.479.269-.874.62-1.165 1.076a4.805 4.805 0 0 0-.624 1.571c-.125.6-.187 1.22-.187 1.883v5.108H90V5.366h1.31v2.462c.355-.828.874-1.49 1.561-1.986ZM8.813 12.233c-.853 0-1.207-.27-1.519-.662-.208-.27-.312-.641-.312-1.138V8.137h2.85V4.001h-2.83V.03h-3.64v1.489c0 1.655-1.269 2.978-2.829 2.978-.124 0-.228 0-.353-.02v3.66h1.913v3.682c0 1.448.27 2.565.791 3.33.811 1.158 1.706 1.923 3.91 1.923 1.27 0 2.351-.29 3.038-.682v-4.323c-.25.104-.603.166-1.02.166Z"/></g><defs><clipPath id="a"><path fill="#fff" d="M0 0h100v21.557H0z"/></clipPath></defs></svg>
